X:1
T: The Boys of Ballinamore
C:
R:Jig
Q:180
K:G
M:6/8
L:1/16
dB|c2A2F2 G4G2|A2B2c2 A2d2B2|c2A2F2 G2F2G2|A2d2e2 f2e2d2|c2A2F2 G4G2|A2B2c2 A2d2B2|c2A2F2 G2F2G2|A2d2^c2 d4dB|
c2A2F2 G4G2|A2B2c2 A2d2B2|c2A2F2 G2F2G2|A2d2e2 f2e2d2|c2A2F2 G4G2|A2B2c2 A2d2B2|c2A2F2 G2F2G2|A2d2^c2 d4g2|
f2e2d2 e2f2g2|e2c2c2 g2c2c2|f2e2d2 e2f2g2|a2g2e2 d4de|f2e2d2 e2f2g2|e2c2c2 g2c2c2|f2a2f2 efg2e2|d4e2 f2e2d2|
f2e2d2 e2f2g2|e2c2c2 g2c2c2|f2e2d2 e2f2g2|a2g2e2 d4de|f2e2d2 e2f2g2|e2c2c2 g2c2c2|f2a2f2 efg2e2|d4e2f2 e2d2||
